!!! OTL: Berkowitz253
!!! Chapter: 1
!!! Section: II
!!! Page: 58
!!! Mode: 
!!! Encoder: DJB
**kern
*staff1
*I"Piano
=1-
*clefG2
*k[b-e-a-d-g-]
*D-:
*met(c|)
*M2/2
4r
4r
4a-/
4a-/
=2
4.a-/
8g-/
8e-/L
8f/
8g-/
8a-/J
=3
4f/
4d-/
4a-/
4a-/
=4
4.a-/
8b-\
8a-/L
8f/
8e-/
8d-/J
=5
4e-/
4r
4a-/
4a-/
=6
4.a-/
8f/
8e-/L
8f/
8g-/
8a-/J
=7
4f/
4d-/
4a-/
4a-/
=8
!!linebreak:original
4.gn/
8a-/
8b-\L
8cc\
8dd-\
8b-\J
=9
4a-/
4r
4b-\
4b-\
=10
4e-/
8f/L
8g-/J
4a-/
4a-/
=11
4d-/
8e-/L
8f/J
4g-/
4f/
=12
4e-/
4d-/
4c/
4B-/
=13
2A-/
4d-/
4e-/
=14
4f/
8e-/L
8f/J
8g-/L
8f/
8g-/
8a-/J
=15
!!linebreak:original
4b-\
4cc\
2dd-\
=16
2r
4d-/
4e-/
=17
8f/L
8a-/
8f/
8d-/J
4e-/
4f/
=18
2d-/
2r
==
*-
